!!!SOCIAL_FUNCTION:	songs of war
!!!PDT:	1918

Specific Region: Dakotas, Minnesota, Montana, Nebraska
!!!REG: Dakotas and Montana
!!!LING_GROUP: Siouan
!!!LANG: Tone
!!!OTL@ENG: Those Hills I Trod Upon
!!!ONM: No. 132a
**kern
*Imale
*clefF4
*M3/4
*MM92
8.c
16c
=1
4e
4e
8.d
16e
=2
8.c
16A
4c
8.A
16c
=3||
*M2/4
8.c
16e
(16e
8.c)
=4
8A
8A
8.G
16E
=5||
*M3/4
8.G
16G
8.E
16A
8.A
16c
=6||
*M2/4
8.A
16A
8.G
16G
=7
8.G
16E
16E
8.E
=8
8E
8E
8.E
16E
=9
[4E
8.E]
16G
=10||
*M3/4
8.E
16G
4G
8.E
16E
=11
*M2/4
2E
=12
2E
==
*-
!!!CNT: Native American -- Sioux
!!!MRD: 1911/07//-1914///
!!!OCL: Frances Densmore
!!!YOR1: Teton Sioux Music, Bulletin 61,
!!!YOR2: Bureau of American Ethnology, Smithsonian Institution
!!!PPR: Government Printing Office
!!!PPP: Washington, D.C.
!!!PDT: 1918///
!!!ENC: Craig Stuart Sapp
!!!END: 2002/03/25/
!!!EEV: 2002/03/31/
!!!AGN: War Song/Song of a Typical War Expedition
!!!MPN@@SIO: Wopo'-tapi
!!!MPN@ENG: Many Wounds
!!!TXO: Teton Sioux
!!!MLC: Standing Rock Reservation, South Dakota, United States of America
!!!ARL: 45.9/-100.7#
!!!catalog: Catalogue No. 670
!!!PPG: 342
!!!EFL: 134/245
!!!VTS: 4231366096
